X: 70
T: No_7_You_Are_Going_to_Be_a_Man.krn
N: Derived from No_7_You_Are_Going_to_Be_a_Man.krn
%%abc-version 2.0
%%abcx-abcm2ps-target-version 5.9.1 (29 Sep 2008)
%%abc-creator hum2abc beta
%%abcx-conversion-date 2019/03/15 08:27:55
%%humdrum-veritas 2272271859
%%humdrum-veritas-data 1308497599
%%linebreak <none>
%%barnumbers 0
L: 1/16
M: 3/4
K: E clef=treble
[K:clef=treble][M:3/4]B3e BG3 G3F | 
F3G FE3 E3B, | 
B,3E EE3- E2 z G | 
G3B GF3 F3E | 
[M:2/4]E3E EB,3 | 
B,4B,3B, | 
B,2 z2 B,2B,2 | 
BB2B B2 z2 | 
[M:3/8]BB3e/B3/ | 
[M:2/4]G4G3F | 
[M:3/4]F3G FE3 E3B, | 
B,2EEE6z G | 
G3B GF3 F3E | 
[M:2/4]E3F EB,3 | 
B,4B,3B, | 
B,4z4 |]  



